public/assets/tracks/ar-vr.svg

<svg fill="none" height="131" viewBox="0 0 131 131" width="131" xmlns="http://www.w3.org/2000/svg"><path d="m100.814 79.381v-29.2772c0-3.6724-1.9377-7.0388-5.1001-8.824l-25.5028-14.6896c-1.5812-.9181-3.3153-1.3772-5.1005-1.3772s-3.5194.4591-5.1006 1.3772l-25.5028 14.6386c-3.1624 1.8362-5.1006 5.2026-5.1006 8.875v29.2772c0 3.6724 1.9382 7.0388 5.1006 8.824l25.5028 14.69c1.5812.918 3.3154 1.377 5.1006 1.377s3.5193-.459 5.1005-1.377l25.5028-14.69c3.1624-1.7852 5.1001-5.1516 5.1001-8.824zm-40.804 11.7313-20.4023-11.7313v-23.6156l20.4023 11.8843zm5.1006-32.2865-20.1983-11.7824 20.1983-11.6292 20.1982 11.6292zm25.5028 20.5552-20.4023 11.7313v-23.4626l20.4023-11.8843z" fill="#fff"/><g stroke="#fff" stroke-linecap="round" stroke-width="8"><path d="m37.7937 12.6324h-22.1613c-1.6568 0-3 1.3431-3 3v22.1613"/><path d="m117.471 37.7937v-22.1613c0-1.6568-1.343-3-3-3h-22.1612"/><path d="m92.3098 117.471h22.1612c1.657 0 3-1.343 3-3v-22.1612"/><path d="m12.6324 92.3098v22.1612c0 1.657 1.3432 3 3 3h22.1613"/></g></svg>

<svg xmlns="http://www.w3.org/2000/svg" width="131" height="131" fill="none" viewBox="0 0 131 131"><path fill="#fff" d="M100.814 79.381V50.1038C100.814 46.4314 98.8763 43.065 95.7139 41.2798L70.2111 26.5902C68.6299 25.6721 66.8958 25.213 65.1106 25.213C63.3254 25.213 61.5912 25.6721 60.01 26.5902L34.5072 41.2288C31.3448 43.065 29.4066 46.4314 29.4066 50.1038V79.381C29.4066 83.0534 31.3448 86.4198 34.5072 88.205L60.01 102.895C61.5912 103.813 63.3254 104.272 65.1106 104.272C66.8958 104.272 68.6299 103.813 70.2111 102.895L95.7139 88.205C98.8763 86.4198 100.814 83.0534 100.814 79.381ZM60.01 91.1123L39.6077 79.381V55.7654L60.01 67.6497V91.1123ZM65.1106 58.8258L44.9123 47.0434L65.1106 35.4142L85.3088 47.0434L65.1106 58.8258ZM90.6134 79.381L70.2111 91.1123V67.6497L90.6134 55.7654V79.381Z"/><path stroke="#fff" stroke-linecap="round" stroke-width="8" d="M37.7937 12.6324H15.6324C13.9756 12.6324 12.6324 13.9755 12.6324 15.6324V37.7937"/><path stroke="#fff" stroke-linecap="round" stroke-width="8" d="M117.471 37.7937L117.471 15.6324C117.471 13.9756 116.128 12.6324 114.471 12.6324L92.3098 12.6324"/><path stroke="#fff" stroke-linecap="round" stroke-width="8" d="M92.3098 117.471H114.471C116.128 117.471 117.471 116.128 117.471 114.471V92.3098"/><path stroke="#fff" stroke-linecap="round" stroke-width="8" d="M12.6324 92.3098V114.471C12.6324 116.128 13.9756 117.471 15.6324 117.471H37.7937"/></svg>
